svg/u1f6ec.svg

<svg viewBox="0 0 128 128" xmlns="http://www.w3.org/2000/svg">
  <path d="M57.9,96.09c-2.2,0-37.28,9.47-37.87,9.67c-0.77,0.27-1.03,1.26,0.24,1.61 c1.27,0.35,59.54,16.41,60.12,16.41s31.84-14.53,32.41-14.76c0.58-0.23,0.25-1.92-1.35-2.28C110.38,106.5,60.78,96.09,57.9,96.09z" fill="#5E6268"/>
  <polygon points="33.18,110.95 71.95,98.61 78.1,99.85 39.52,112.59 " fill="#C8C8C8"/>
  <path d="M40.59,110.09c-1.21-0.57-17.63-5.18-17.63-5.18l4.69-1.24c0,0,17.57,4.43,17,4.57 C44.09,108.38,40.59,110.09,40.59,110.09z" fill="#C8C8C8"/>
  <polygon points="49,106.67 32.25,102.47 37.12,101.17 54.78,105.46 " fill="#C8C8C8"/>
  <polygon points="58.13,103.75 42.01,99.87 47,98.6 62.9,102.54 " fill="#C8C8C8"/>
  <polygon points="50.75,97.66 66.82,101.4 70.17,99.97 55.05,96.63 " fill="#C8C8C8"/>
  <polygon points="89.86,110.73 84.96,112.86 90.99,114.3 96.19,112.16 " fill="#C8C8C8"/>
  <g>
    <polygon points="79.44,108.37 74.41,110.35 81.18,111.97 85.88,109.83 " fill="#C8C8C8"/>
    <polygon points="76.09,107.61 69.1,106.03 64.04,107.89 70.71,109.47 " fill="#C8C8C8"/>
  </g>
  <path d="M37.74,38.58c0,0,2.37-2.55,2.78-2.72c0.4-0.17,3.36-0.17,4.05-0.12c0.69,0.06,0.66,0.55,0.08,1.56 c-0.69,1.22-3.02,5.08-3.02,5.08L37.74,38.58z" fill="#006CA8"/>
  <path d="M76.43,48.84L86.84,38.4c0,0,0.13-3.97,0.36-4.64c0.11-0.34,2.67,0.07,3.01,0.3 c0.66,0.44,3.19,5.11,3.19,5.11l-4.6,12.69L76.43,48.84z" fill="#006CA8"/>
  <path d="M74.14,67v6.26c0,0-2.07,1.26-1.98,3.49c0.08,1.99,1.58,3.62,3.59,3.81c2.01,0.19,4.05-1.21,4.1-3.49 c0.05-2.24-1.4-3.22-1.4-3.22v-6.12L74.14,67z" fill="#5D6268"/>
  <path d="M88.65,69.24l0.05,1.68c0,0-1.45,1.07-1.26,3.03c0.19,1.96,1.54,3.08,3.41,3.08s3.27-1.26,3.22-3.55 c-0.04-2.1-2.24-3.17-2.24-3.17L88.65,69.24z" fill="#5D6268"/>
  <path d="M102.72,73.47c0,0-0.05,4.44,0.28,4.67c0.33,0.23,1.73,0.14,1.73,0.14s-2.15,1.03-1.96,3.36 c0.16,2.01,1.4,3.36,3.83,3.36c2.43,0,3.87-1.35,3.83-3.6c-0.05-2.66-2.66-3.32-2.66-3.32s1.03-0.05,1.03-0.28s-0.05-4.48-0.05-4.48 L102.72,73.47z" fill="#5D6268"/>
  <path d="M49.94,67.18c-3.71,0.25-5.06,2.45-5.06,4.39s0,4.3,2.79,6.16c3.02,2.01,7.12,4.06,10.97,5.39 c3.66,1.26,8.48,0.31,8.42-5.39c-0.04-3.18,0.39-6.81-4.08-7.52c-2.97-0.47-6.87-2.59-6.87-2.59L49.94,67.18z" fill="#999B9A"/>
  <path d="M63,71.78c-1.26-0.04-2.46,1.83-2.57,4.51c-0.11,2.91,0.51,5.6,2.23,5.6c1.71,0,2.46-3.03,2.46-5.43 C65.11,74.12,64.71,71.84,63,71.78z" fill="#5D6268"/>
  <path d="M24.67,41.3c-0.46,0.07-1.26,1.04-1.04,1.85c0.22,0.81,1.42,4.43,12.03,10.92s23.58,10.81,31,12.77 s20.7,5.36,33.06,6.8c12.36,1.44,23.38,1.75,23.79-2.16c0.41-3.91-6.28-7.83-6.28-7.83l-0.93-1.54c0,0,0-1.96-2.78-4.33 c-2.78-2.37-9.17-5.15-23.17-8.45c-14.01-3.3-37.18-7.62-46.86-8.24S25.74,41.14,24.67,41.3z" fill="#C8C8C8"/>
  <path d="M26.97,42.4c0.72,0.66,3.85,0.93,10.33,1.63c6.48,0.7,10.81,1.19,10.81,0.79 c0-0.61-5.03-3.47-7.02-4.58c-1.98-1.11-15.52-21.47-15.99-21.59s-4.67-0.88-5.02-0.47C19.73,18.59,26.27,41.76,26.97,42.4z" fill="#014EAC"/>
  <path d="M25.8,43.8c-0.7,0-19.67,2.33-20.95,2.45c-1.28,0.12-1.87,0.76-1.81,1.4S3.8,48.7,6.43,48.7 s23.17-0.76,23.87-0.82c0.7-0.06,1.34-1.69-0.53-2.68C27.9,44.21,25.8,43.8,25.8,43.8z" fill="#006CA8"/>
  <path d="M11.01,69.21c0.8,0.18,17.67-1.68,23-2.55c9.29-1.52,16.56-3.43,17.15-4.11 c0.47-0.54,1.07-2.04,2.22-2.04s5.67,0.79,10.13,1.51c6.04,0.98,11.81,2.49,12.7,2.93c0.89,0.44,1.24,2.84-2.58,3.55 c-3.82,0.71-17.5,3.2-28.42,4.44c-10.92,1.24-34.55,3.92-37.39,1.69c-1.24-0.98-1.95-8.72-1.28-9.39c0.09-0.09,2.71-0.14,3.43,0.1 C10.27,65.44,11.01,69.21,11.01,69.21z" fill="#006CA8"/>
  <path d="M51.92,44.29c-0.81,0.74,0.05,1.6,2.83,2.16s12.93,2.52,19.31,3.76c6.39,1.24,19.16,4.07,20.65,4.33 c1.49,0.26,2.27-0.21,2.42-0.82c0.15-0.62-0.46-1.29-3.66-1.96c-2.87-0.6-10.25-2.32-19.01-4.02s-17.72-3.35-19.06-3.55 C54.09,43.98,52.54,43.72,51.92,44.29z" fill="#E1E1E1"/>
  <path d="M99.26,54.64c-0.15,1,0.49,1.44,2.42,2.01c2.43,0.72,3.45,0.69,3.76-0.26c0.36-1.08-1-1.71-2.83-2.27 C100.75,53.56,99.41,53.61,99.26,54.64z" fill="#E1E1E1"/>
  <path d="M108.27,63.35c-0.93-0.05-1.7,0.36-1.7,1.13s0.36,1.44,1.65,1.7s4.53,0.62,7.11-0.15 s2.65-1.93,2.65-1.93s-0.39-0.52-0.75-1.05c-0.33-0.48-0.95-1.19-0.95-1.19s-1.1,1.13-3.21,1.39 C110.95,63.5,109.2,63.4,108.27,63.35z" fill="#385662"/>
  <path d="M39.57,48.96c-1.04-0.06-1.3,0.84-1.3,1.59s0.13,1.78,1.13,1.85c1,0.06,1.36-0.81,1.36-1.59 S40.68,49.02,39.57,48.96z" fill="#385662"/>
  <path d="M46.67,51.23c-0.75-0.03-1.3,0.45-1.36,1.62s0.39,1.82,1.2,1.91c0.81,0.1,1.36-0.71,1.36-1.85 C47.87,51.94,47.55,51.26,46.67,51.23z" fill="#385662"/>
  <path d="M53.42,52.88c-0.78-0.03-1.2,0.84-1.2,1.65c0,0.75,0.19,1.75,1.17,1.82 c0.78,0.05,1.39-0.68,1.36-1.72C54.71,53.59,54.36,52.91,53.42,52.88z" fill="#385662"/>
  <path d="M76.11,57.9c-1.04-0.06-1.3,0.84-1.3,1.59s0.13,1.78,1.13,1.85c1,0.06,1.36-0.81,1.36-1.59 S77.21,57.97,76.11,57.9z" fill="#385662"/>
  <path d="M83.69,59.57c-0.75-0.03-1.3,0.45-1.36,1.62c-0.06,1.17,0.39,1.82,1.2,1.91s1.36-0.71,1.36-1.85 C84.89,60.28,84.57,59.61,83.69,59.57z" fill="#385662"/>
  <path d="M91.31,61.57c-0.78-0.03-1.2,0.84-1.2,1.65c0,0.75,0.19,1.75,1.17,1.82 c0.78,0.05,1.39-0.68,1.36-1.72S92.25,61.6,91.31,61.57z" fill="#385662"/>
  <path d="M60.66,54.61c-1.04-0.06-1.3,0.84-1.3,1.59c0,0.75,0.13,1.78,1.13,1.85c1,0.06,1.36-0.81,1.36-1.59 S61.76,54.67,60.66,54.61z" fill="#385662"/>
  <path d="M68.12,56.11c-0.78-0.03-1.2,0.84-1.2,1.65c0,0.75,0.19,1.75,1.17,1.82 c0.78,0.05,1.39-0.68,1.36-1.72C69.42,56.82,69.06,56.14,68.12,56.11z" fill="#385662"/>
</svg>

<svg viewBox="0 0 128 128" xmlns="http://www.w3.org/2000/svg">
  <defs/>
  <path d="M57.9,96.09 C55.7,96.09 20.62,105.56 20.03,105.76 C19.26,106.03 19,107.02 20.27,107.37 C21.54,107.72 79.81,123.78 80.39,123.78 C80.97,123.78 112.23,109.25 112.8,109.02 C113.38,108.79 113.05,107.1 111.45,106.74 C110.38,106.5 60.78,96.09 57.9,96.09 Z" fill="#5E6268"/>
  <path d="M33.18,110.95 L71.95,98.61 L78.1,99.85 L39.52,112.59 Z" fill="#C8C8C8"/>
  <path d="M40.59,110.09 C39.38,109.52 22.96,104.91 22.96,104.91 L27.65,103.67 C27.65,103.67 45.22,108.1 44.65,108.24 C44.09,108.38 40.59,110.09 40.59,110.09 Z" fill="#C8C8C8"/>
  <path d="M49,106.67 L32.25,102.47 L37.12,101.17 L54.78,105.46 Z" fill="#C8C8C8"/>
  <path d="M58.13,103.75 L42.01,99.87 L47,98.6 L62.9,102.54 Z" fill="#C8C8C8"/>
  <path d="M50.75,97.66 L66.82,101.4 L70.17,99.97 L55.05,96.63 Z" fill="#C8C8C8"/>
  <path d="M89.86,110.73 L84.96,112.86 L90.99,114.3 L96.19,112.16 Z" fill="#C8C8C8"/>
  <path d="M79.44,108.37 L74.41,110.35 L81.18,111.97 L85.88,109.83 Z" fill="#C8C8C8"/>
  <path d="M76.09,107.61 L69.1,106.03 L64.04,107.89 L70.71,109.47 Z" fill="#C8C8C8"/>
  <path d="M37.74,38.58 C37.74,38.58 40.11,36.03 40.52,35.86 C40.92,35.69 43.88,35.69 44.57,35.74 C45.26,35.8 45.23,36.29 44.65,37.3 C43.96,38.52 41.63,42.38 41.63,42.38 L37.74,38.58 Z" fill="#006CA8"/>
  <path d="M76.43,48.84 L86.84,38.4 C86.84,38.4 86.97,34.43 87.2,33.76 C87.31,33.42 89.87,33.83 90.21,34.06 C90.87,34.5 93.4,39.17 93.4,39.17 L88.8,51.86 L76.43,48.84 Z" fill="#006CA8"/>
  <path d="M74.14,67 L74.14,73.26 C74.14,73.26 72.07,74.52 72.16,76.75 C72.24,78.74 73.74,80.37 75.75,80.56 C77.76,80.75 79.8,79.35 79.85,77.07 C79.9,74.83 78.45,73.85 78.45,73.85 L78.45,67.73 L74.14,67 Z" fill="#5D6268"/>
  <path d="M88.65,69.24 L88.7,70.92 C88.7,70.92 87.25,71.99 87.44,73.95 C87.63,75.91 88.98,77.03 90.85,77.03 C92.72,77.03 94.12,75.77 94.07,73.48 C94.03,71.38 91.83,70.31 91.83,70.31 L88.65,69.24 Z" fill="#5D6268"/>
  <path d="M102.72,73.47 C102.72,73.47 102.67,77.91 103,78.14 C103.33,78.37 104.73,78.28 104.73,78.28 C104.73,78.28 102.58,79.31 102.77,81.64 C102.93,83.65 104.17,85 106.6,85 C109.03,85 110.47,83.65 110.43,81.4 C110.38,78.74 107.77,78.08 107.77,78.08 C107.77,78.08 108.8,78.03 108.8,77.8 C108.8,77.57 108.75,73.32 108.75,73.32 L102.72,73.47 Z" fill="#5D6268"/>
  <path d="M49.94,67.18 C46.23,67.43 44.88,69.63 44.88,71.57 C44.88,73.51 44.88,75.87 47.67,77.73 C50.69,79.74 54.79,81.79 58.64,83.12 C62.3,84.38 67.12,83.43 67.06,77.73 C67.02,74.55 67.45,70.92 62.98,70.21 C60.01,69.74 56.11,67.62 56.11,67.62 L49.94,67.18 Z" fill="#999B9A"/>
  <path d="M63,71.78 C61.74,71.74 60.54,73.61 60.43,76.29 C60.32,79.2 60.94,81.89 62.66,81.89 C64.37,81.89 65.12,78.86 65.12,76.46 C65.11,74.12 64.71,71.84 63,71.78 Z" fill="#5D6268"/>
  <path d="M24.67,41.3 C24.21,41.37 23.41,42.34 23.63,43.15 C23.85,43.96 25.05,47.58 35.66,54.07 C46.27,60.56 59.24,64.88 66.66,66.84 C74.08,68.8 87.36,72.2 99.72,73.64 C112.08,75.08 123.1,75.39 123.51,71.48 C123.92,67.57 117.23,63.65 117.23,63.65 L116.3,62.11 C116.3,62.11 116.3,60.15 113.52,57.78 C110.74,55.41 104.35,52.63 90.35,49.33 C76.34,46.03 53.17,41.71 43.49,41.09 C33.81,40.47 25.74,41.14 24.67,41.3 Z" fill="#C8C8C8"/>
  <path d="M26.97,42.4 C27.69,43.06 30.82,43.33 37.3,44.03 C43.78,44.73 48.11,45.22 48.11,44.82 C48.11,44.21 43.08,41.35 41.09,40.24 C39.11,39.13 25.57,18.77 25.1,18.65 C24.63,18.53 20.43,17.77 20.08,18.18 C19.73,18.59 26.27,41.76 26.97,42.4 Z" fill="#014EAC"/>
  <path d="M25.8,43.8 C25.1,43.8 6.13,46.13 4.85,46.25 C3.57,46.37 2.98,47.01 3.04,47.65 C3.1,48.29 3.8,48.7 6.43,48.7 C9.06,48.7 29.6,47.94 30.3,47.88 C31,47.82 31.64,46.19 29.77,45.2 C27.9,44.21 25.8,43.8 25.8,43.8 Z" fill="#006CA8"/>
  <path d="M11.01,69.21 C11.81,69.39 28.68,67.53 34.01,66.66 C43.3,65.14 50.57,63.23 51.16,62.55 C51.63,62.01 52.23,60.51 53.38,60.51 C54.53,60.51 59.05,61.3 63.51,62.02 C69.55,63 75.32,64.51 76.21,64.95 C77.1,65.39 77.45,67.79 73.63,68.5 C69.81,69.21 56.13,71.7 45.21,72.94 C34.29,74.18 10.66,76.86 7.82,74.63 C6.58,73.65 5.87,65.91 6.54,65.24 C6.63,65.15 9.25,65.1 9.97,65.34 C10.27,65.44 11.01,69.21 11.01,69.21 Z" fill="#006CA8"/>
  <path d="M51.92,44.29 C51.11,45.03 51.97,45.89 54.75,46.45 C57.53,47.01 67.68,48.97 74.06,50.21 C80.45,51.45 93.22,54.28 94.71,54.54 C96.2,54.8 96.98,54.33 97.13,53.72 C97.28,53.1 96.67,52.43 93.47,51.76 C90.6,51.16 83.22,49.44 74.46,47.74 C65.7,46.04 56.74,44.39 55.4,44.19 C54.09,43.98 52.54,43.72 51.92,44.29 Z" fill="#E1E1E1"/>
  <path d="M99.26,54.64 C99.11,55.64 99.75,56.08 101.68,56.65 C104.11,57.37 105.13,57.34 105.44,56.39 C105.8,55.31 104.44,54.68 102.61,54.12 C100.75,53.56 99.41,53.61 99.26,54.64 Z" fill="#E1E1E1"/>
  <path d="M108.27,63.35 C107.34,63.3 106.57,63.71 106.57,64.48 C106.57,65.25 106.93,65.92 108.22,66.18 C109.51,66.44 112.75,66.8 115.33,66.03 C117.91,65.26 117.98,64.1 117.98,64.1 C117.98,64.1 117.59,63.58 117.23,63.05 C116.9,62.57 116.28,61.86 116.28,61.86 C116.28,61.86 115.18,62.99 113.07,63.25 C110.95,63.5 109.2,63.4 108.27,63.35 Z" fill="#385662"/>
  <path d="M39.57,48.96 C38.53,48.9 38.27,49.8 38.27,50.55 C38.27,51.3 38.4,52.33 39.4,52.4 C40.4,52.46 40.76,51.59 40.76,50.81 C40.76,50.03 40.68,49.02 39.57,48.96 Z" fill="#385662"/>
  <path d="M46.67,51.23 C45.92,51.2 45.37,51.68 45.31,52.85 C45.25,54.02 45.7,54.67 46.51,54.76 C47.32,54.86 47.87,54.05 47.87,52.91 C47.87,51.94 47.55,51.26 46.67,51.23 Z" fill="#385662"/>
  <path d="M53.42,52.88 C52.64,52.85 52.22,53.72 52.22,54.53 C52.22,55.28 52.41,56.28 53.39,56.35 C54.17,56.4 54.78,55.67 54.75,54.63 C54.71,53.59 54.36,52.91 53.42,52.88 Z" fill="#385662"/>
  <path d="M76.11,57.9 C75.07,57.84 74.81,58.74 74.81,59.49 C74.81,60.24 74.94,61.27 75.94,61.34 C76.94,61.4 77.3,60.53 77.3,59.75 C77.3,58.97 77.21,57.97 76.11,57.9 Z" fill="#385662"/>
  <path d="M83.69,59.57 C82.94,59.54 82.39,60.02 82.33,61.19 C82.27,62.36 82.72,63.01 83.53,63.1 C84.34,63.19 84.89,62.39 84.89,61.25 C84.89,60.28 84.57,59.61 83.69,59.57 Z" fill="#385662"/>
  <path d="M91.31,61.57 C90.53,61.54 90.11,62.41 90.11,63.22 C90.11,63.97 90.3,64.97 91.28,65.04 C92.06,65.09 92.67,64.36 92.64,63.32 C92.61,62.28 92.25,61.6 91.31,61.57 Z" fill="#385662"/>
  <path d="M60.66,54.61 C59.62,54.55 59.36,55.45 59.36,56.2 C59.36,56.95 59.49,57.98 60.49,58.05 C61.49,58.11 61.85,57.24 61.85,56.46 C61.85,55.68 61.76,54.67 60.66,54.61 Z" fill="#385662"/>
  <path d="M68.12,56.11 C67.34,56.08 66.92,56.95 66.92,57.76 C66.92,58.51 67.11,59.51 68.09,59.58 C68.87,59.63 69.48,58.9 69.45,57.86 C69.42,56.82 69.06,56.14 68.12,56.11 Z" fill="#385662"/>
</svg>
